!!!COM: Bach, Johann Sebastian
!!!OTL: Ach bleib bei uns, Herr Jesu Chris
!!!ONM: No. 177
!!!OCL: Erk
!!!YOE: Riemenschneider, Albert
!!!OPR: 371 Harmonized Chorales and 69 Chorale Melodies with Figured Bass
!!!OPT: Bach Chorale Harmonizations
**kern	**kern	**kern	**kern
! bass	! tenor	! alto	! soprano
*M4/4	*M4/4	*M4/4	*M4/4
*A:	*A:	*A:	*A:
4AA	4e	4a	4cc#
=1	=1	=1	=1
4A	4e	4a	8cc#
.	.	.	8dd
4G#	4e	4b	4ee
4A	4e	4a	4cc#
4F#	8e	4a	4a
.	8d	.	.
=2	=2	=2	=2
4Gn	4d	8gn	4b
.	.	8f#	.
4A	4A	4e	4cc#
4D;	4A;	4f#;	4dd;
4AA	4A	4e	4cc#
=3	=3	=3	=3
4E	4G#	8e	4b
.	.	8d	.
8F#	4A	4c#	4a
8E	.	.	.
8D	2d	2f#	4.a
8E	.	.	.
8F#	.	.	.
8G#	.	.	8b
=4	=4	=4	=4
4A	8c#	4e	4cc#
.	8B	.	.
8C#	4A	4e	4cc#
8D	.	.	.
4E	4A	4.e	8b
.	.	.	8a
4E	4G#	.	4b
.	.	8d	.
=5	=5	=5	=5
2.AA;	2.E;	2.c#;	2.a;
4AA	4e	4a	4cc#
=6	=6	=6	=6
4E	8e	4g#	4b
.	8d	.	.
4E#	4c#	4g#	4cc#
4F#	4c#	8f#	4a
.	.	8e	.
8B	4B	4d#	4f#
8A	.	.	.
=7	=7	=7	=7
4G#	4B	[4e	4g#
4F#	4A	8e]	4a
.	.	8d#	.
4E;	4G#;	4e;	4b;
4C#	4G#	4e#	4cc#
=8	=8	=8	=8
8F#	4A	4c#	4a
8E	.	.	.
8F#	4d	4f#	4a
8G#	.	.	.
8A	8c#	4e	4.a
8B	8d	.	.
8A	8c#	8f#	.
8G#	8B	8g#	8b
=9	=9	=9	=9
4F#	4A	4a	4cc#
8C#	4A	4e	4cc#
8D	.	.	.
4E	4A	4.e	8b
.	.	.	8a
4E	4G#	.	4b
.	.	8d	.
=10	=10	=10	=10
2.AA;	2.E;	2.c#;	2.a;
==	==	==	==
*-	*-	*-	*-
!!!CDT: 1685/3//-1750/7/28
!!!OCY: Deutschland
!!!AGN: chorale
!!!AST: Baroque
!!!AIN: vox
!!!YOY: 1941
!!!PPP: New York; London
!!!PPR: G. Schirmer
!!!ENC: David Huron
!!!EED: David Huron
!!!YEN: United States of America
!!!YER: 1992
!!!YEC: Copyright 1992 David Huron
!!!YEM: Rights to all derivative electronic formats reserved.
!!!YER: March 20, 1996
!!!AMT: simple quadruple
!!!EEV: 1.1
